svg/fluentui-system-icons/ic_fluent_wallet_20_filled.svg

<svg width="20" height="20" viewBox="0 0 20 20" fill="none" xmlns="http://www.w3.org/2000/svg">
<path d="M4.5 3C3.67157 3 3 3.67157 3 4.5V14.5C3 15.8807 4.11929 17 5.5 17H15C16.1046 17 17 16.1046 17 15V7C17 6.25972 16.5978 5.61337 16 5.26756V5C16 3.89543 15.1046 3 14 3H4.5ZM15 5H4.5C4.22386 5 4 4.77614 4 4.5C4 4.22386 4.22386 4 4.5 4H14C14.5523 4 15 4.44772 15 5ZM13.5 11H14.5C14.7761 11 15 11.2239 15 11.5C15 11.7761 14.7761 12 14.5 12H13.5C13.2239 12 13 11.7761 13 11.5C13 11.2239 13.2239 11 13.5 11Z" fill="#212121"/>
</svg>

<svg xmlns="http://www.w3.org/2000/svg" width="20" height="20"><path d="M4.5 3A1.5 1.5 0 0 0 3 4.5v10A2.5 2.5 0 0 0 5.5 17H15a2 2 0 0 0 2-2V7a2 2 0 0 0-1-1.732V5a2 2 0 0 0-2-2H4.5ZM15 5H4.5a.5.5 0 0 1 0-1H14a1 1 0 0 1 1 1Zm-1.5 6h1a.5.5 0 0 1 0 1h-1a.5.5 0 0 1 0-1Z"/></svg>
